mimes/scalable/application-msword.svg

<?xml version="1.0" encoding="UTF-8" standalone="no"?>
<svg
   xmlns:dc="http://purl.org/dc/elements/1.1/"
   xmlns:cc="http://creativecommons.org/ns#"
   xmlns:rdf="http://www.w3.org/1999/02/22-rdf-syntax-ns#"
   xmlns:svg="http://www.w3.org/2000/svg"
   xmlns="http://www.w3.org/2000/svg"
   xmlns:sodipodi="http://sodipodi.sourceforge.net/DTD/sodipodi-0.dtd"
   xmlns:inkscape="http://www.inkscape.org/namespaces/inkscape"
   width="48"
   height="48"
   viewBox="0 0 12.7 12.7"
   version="1.1"
   id="svg4"
   sodipodi:docname="application-msword.svg"
   inkscape:version="0.92.3 (2405546, 2018-03-11)">
  <metadata
     id="metadata10">
    <rdf:RDF>
      <cc:Work
         rdf:about="">
        <dc:format>image/svg+xml</dc:format>
        <dc:type
           rdf:resource="http://purl.org/dc/dcmitype/StillImage" />
        <dc:title></dc:title>
      </cc:Work>
    </rdf:RDF>
  </metadata>
  <defs
     id="defs8" />
  <sodipodi:namedview
     pagecolor="#ffffff"
     bordercolor="#666666"
     borderopacity="1"
     objecttolerance="10"
     gridtolerance="10"
     guidetolerance="10"
     inkscape:pageopacity="0"
     inkscape:pageshadow="2"
     inkscape:window-width="1366"
     inkscape:window-height="715"
     id="namedview6"
     showgrid="false"
     showguides="true"
     inkscape:guide-bbox="true"
     inkscape:snap-global="true"
     inkscape:zoom="3.8817217"
     inkscape:cx="23.999999"
     inkscape:cy="23.999999"
     inkscape:window-x="0"
     inkscape:window-y="27"
     inkscape:window-maximized="1"
     inkscape:current-layer="svg4"
     inkscape:measure-start="0,0"
     inkscape:measure-end="0,0" />
  <path
     inkscape:connector-curvature="0"
     style="opacity:1;fill:#0088aa;fill-opacity:1;fill-rule:nonzero;stroke:none;stroke-width:0.50711805;stroke-linecap:round;stroke-linejoin:bevel;stroke-miterlimit:4;stroke-dasharray:none;stroke-opacity:1"
     d="m 7.3492433,0.0566603 c -0.040983,0 -0.078161,0.0127642 -0.1049033,0.0330729 C 7.218411,0.1094229 7.202933,0.1367362 7.201965,0.1667311 7.3445127,0.2235372 7.4736634,0.30302596 7.5802366,0.40909358 7.76971,0.59766786 7.8931916,0.85276088 7.9104491,1.1392812 h 0.00672 v 0.068213 0.1441772 0.1369425 0.1927531 c 0,0.2812905 0.2266883,0.5079794 0.5079795,0.5079794 h 0.1183391 l -5.291e-4,0.00568 h 1.6924064 c 0.329951,0 0.613684,0.1491999 0.819072,0.3731038 V 1.141865 0.56463964 c 0,-0.14064565 -0.05654,-0.26789289 -0.148312,-0.35966798 C 10.814345,0.11319656 10.687101,0.0566603 10.546455,0.0566603 H 9.0462851 7.7864139 Z"
     id="path965" />
  <path
     style="opacity:1;fill:#333333;fill-opacity:1;fill-rule:nonzero;stroke:none;stroke-width:0.50711805;stroke-linecap:round;stroke-linejoin:bevel;stroke-miterlimit:4;stroke-dasharray:none;stroke-opacity:1"
     d="m 2.9460732,0.55206094 c -0.6285519,0 -1.134298,0.50626306 -1.134298,1.13481446 v 9.9012056 c 0,0.628551 0.5057461,1.134814 1.134298,1.134814 h 4.2855261 2.522327 c 0.6285527,0 1.1342987,-0.506263 1.1342987,-1.134814 V 3.6728008 h -0.01292 C 10.810197,3.1070068 10.337709,2.6687276 9.7539263,2.6687276 h -1.692403 v 0 l -0.11781,-0.00568 C 7.6627483,2.6495013 7.4357343,2.4363589 7.4357343,2.1550682 V 1.9623107 1.8253682 1.6811909 1.612978 h -0.0067 C 7.3941823,1.0346118 6.9321933,0.5804805 6.3510473,0.55464473 l -5.29e-4,-0.002585 h -0.02015 z"
     id="path833"
     inkscape:connector-curvature="0" />
  <path
     style="opacity:1;fill:#cccccc;fill-opacity:1;fill-rule:nonzero;stroke:none;stroke-width:0.50711805;stroke-linecap:round;stroke-linejoin:bevel;stroke-miterlimit:4;stroke-dasharray:none;stroke-opacity:1"
     d="m 6.4269983,1.0791605 c 0.263277,0.019482 0.470254,0.2359637 0.470255,0.504362 v 0.2563151 0.125057 0.092501 c 0,0.5757933 0.427721,1.0388807 0.982369,1.1136271 v 0 l 1.962134,0.026872 c 0.2812647,0.00385 0.5079787,0.2266886 0.5079797,0.5079793 V 5.7894678 11.68575 c 0,0.281291 -0.226688,0.50798 -0.5079797,0.50798 H 7.2315993 2.8582236 c -0.281291,0 -0.50798,-0.226689 -0.50798,-0.50798 V 1.5892069 c 0,-0.2812907 0.226689,-0.5079794 0.50798,-0.5079794 h 3.5692907 z"
     id="path901-5"
     inkscape:connector-curvature="0" />
  <path
     style="line-height:normal;text-indent:0;text-align:start;text-decoration:none;text-decoration-line:none;text-transform:none;fill:#0088aa;fill-opacity:1;stroke-width:0.26458332;marker:none"
     d="m 5.7161374,2.1352975 c -0.02506,-4.536e-4 -0.04479,0.0059 -0.04343,0.038553 C 5.5398113,2.8470643 5.3851436,3.5161957 5.2836569,4.195419 5.2514534,3.9902911 5.21959,3.7850503 5.1793354,3.5812831 5.0662829,3.0993637 4.9460865,2.6191447 4.8303124,2.1377923 H 4.3753802 L 4.1107212,3.2265902 C 4.0266971,3.5448841 3.9692069,3.8691877 3.923623,4.195419 3.8160132,3.5046295 3.6616856,2.8227985 3.5253874,2.1375655 H 3.0153461 L 3.6039686,4.6322083 H 4.1947454 L 4.2888615,4.2446314 C 4.4003266,3.7675877 4.5363981,3.2955331 4.5991042,2.8079438 c 0.019277,0.087766 0.053861,0.3312207 0.086519,0.4735288 0.1026204,0.4517569 0.2188483,0.9003391 0.3269118,1.3509625 H 5.6014972 L 6.1903463,2.1377923 H 5.7918838 c -0.020296,0.00555 -0.050573,-0.00194 -0.075747,-0.00249 z"
     id="path33"
     inkscape:connector-curvature="0" />
  <path
     inkscape:connector-curvature="0"
     style="color:#000000;opacity:1;color-interpolation:sRGB;color-interpolation-filters:linearRGB;fill:#0088aa;stroke-width:0.26458332;color-rendering:auto;image-rendering:auto;shape-rendering:auto;text-rendering:auto;fill-opacity:1"
     d="m 3.7041666,5.5562503 c -0.1465792,0 -0.2645833,0.1180041 -0.2645833,0.2645833 v 5.2916674 c 0,0.146579 0.1180041,0.264583 0.2645833,0.264583 h 5.2916667 c 0.1465789,0 0.2645831,-0.118004 0.2645831,-0.264583 V 5.8208336 c 0,-0.1465792 -0.1180042,-0.2645833 -0.2645831,-0.2645833 z m 0,0.2645833 H 8.9958333 V 11.112501 H 3.7041666 V 6.085417 Z M 3.9687499,6.3500003 V 6.6145836 H 6.0854166 V 6.3500003 Z m 2.6458334,0 V 6.6145836 H 8.7312502 V 6.3500003 Z m -2.6323396,0.79375 V 7.4083336 H 6.0854166 V 7.1437503 Z m 2.6323396,0 V 7.4083336 H 8.7312502 V 7.1437503 Z m -2.6458334,0.79375 V 8.2020836 H 6.0854166 V 7.9375003 Z m 2.6458334,0 V 8.2020836 H 8.7312502 V 7.9375003 Z m -2.6323396,0.79375 V 8.9958336 H 6.0854166 V 8.7312503 Z m 2.6323396,0 V 8.9958336 H 8.7312502 V 8.7312503 Z m -2.6458334,0.79375 V 9.7895836 H 6.0854166 V 9.5250003 Z m 2.6458334,0 V 9.7895836 H 8.7312502 V 9.5250003 Z M 3.9822437,10.31875 v 0.264584 H 6.0854166 V 10.31875 Z m 2.6323396,0 v 0.264584 H 8.7312502 V 10.31875 Z"
     id="path29" />
</svg>

<?xml version="1.0" encoding="UTF-8" standalone="no"?><svg xmlns:dc="http://purl.org/dc/elements/1.1/" xmlns:cc="http://creativecommons.org/ns#" xmlns:rdf="http://www.w3.org/1999/02/22-rdf-syntax-ns#" xmlns="http://www.w3.org/2000/svg" width="48" height="48" viewBox="0 0 12.7 12.7"><metadata><rdf:RDF><cc:Work><dc:format>image/svg+xml</dc:format><dc:type rdf:resource="http://purl.org/dc/dcmitype/StillImage"/><dc:title/></cc:Work></rdf:RDF></metadata><path d="M7.35.06a.17.17 0 0 0-.1.03.1.1 0 0 0-.05.08 1.12 1.12 0 0 1 .71.97v.55c0 .27.23.5.52.5h1.81c.33 0 .6.15.81.38V.56a.5.5 0 0 0-.5-.5H7.79z" fill="#08a"/><path d="M2.95.55c-.63 0-1.14.5-1.14 1.14v9.9c0 .63.5 1.13 1.14 1.13H9.75c.63 0 1.14-.5 1.14-1.13V3.67h-.01c-.07-.56-.54-1-1.13-1H7.94a.52.52 0 0 1-.5-.51V1.6h-.01A1.12 1.12 0 0 0 6.35.55h-.02z" fill="#333"/><path d="M6.43 1.08a.5.5 0 0 1 .47.5v.48c0 .57.42 1.04.98 1.11l1.96.03c.28 0 .51.22.51.5v7.99a.5.5 0 0 1-.5.5H2.85a.5.5 0 0 1-.51-.5V1.59c0-.28.23-.5.5-.5h3.58z" fill="#ccc"/><path style="line-height:normal;text-indent:0;text-align:start;text-decoration-line:none;text-transform:none;marker:none" d="M5.72 2.14c-.03 0-.05 0-.05.03-.13.68-.28 1.35-.39 2.03l-.1-.62-.35-1.44h-.45L4.1 3.23c-.08.31-.14.64-.19.97-.1-.7-.26-1.38-.4-2.06h-.5l.58 2.5h.6l.09-.4c.11-.47.25-.94.3-1.43.03.09.06.33.1.47L5 4.63h.6l.58-2.5h-.4c-.02.01-.05 0-.07 0z" fill="#08a"/><path d="M3.7 5.56a.26.26 0 0 0-.26.26v5.3c0 .14.12.26.26.26H9c.14 0 .26-.12.26-.27V5.82A.26.26 0 0 0 9 5.56zm0 .26H9v5.3H3.7V6.08zm.27.53v.26h2.12v-.26zm2.64 0v.26h2.12v-.26zm-2.63.8v.26h2.1v-.27zm2.63 0v.26h2.12v-.27zm-2.64.79v.26h2.12v-.26zm2.64 0v.26h2.12v-.26zm-2.63.8V9h2.1v-.27zm2.63 0V9h2.12v-.27zm-2.64.79v.26h2.12v-.26zm2.64 0v.26h2.12v-.26zm-2.63.79v.26h2.1v-.26zm2.63 0v.26h2.12v-.26z" color="#000" fill="#08a"/></svg>
